X: 1
T:Dix Canetons - Tour
C:Y. Dour 5
M:4/4
L:1/8
K:C
A2AEA2c2|B2BGB2B2|A2AEA2c2|B2G2A4:|\
|:B2Bdc2A2|B2Bdc2A2|A2AEA2c2|B2G2A4:|
